packages/katcn/src/icons/svg/penTool-solid.svg

<svg width="24" height="25" viewBox="0 0 24 25" fill="none" xmlns="http://www.w3.org/2000/svg">
<path d="M21.7085 13.6322C21.3044 13.2263 20.6983 13.2263 20.2942 13.6322L19.8901 14.0381L19.1829 13.2263C18.6778 12.7189 18.2737 12.0086 18.0717 11.2982C17.7686 10.0805 17.5666 8.65984 17.5666 7.64508C17.4656 6.42736 16.6574 5.51408 15.5461 5.20965L5.14081 3.07864C4.6357 2.87569 4.13058 2.97717 3.62547 3.18012L4.43365 3.99193L5.64592 5.20965L9.98989 9.57313C10.394 9.97904 10.394 10.5879 9.98989 10.9938C9.78785 11.1968 9.48478 11.2982 9.28273 11.2982C8.97967 11.2982 8.77762 11.1968 8.57558 10.9938L4.23161 6.63032L3.01933 5.4126L2.21115 4.60079C2.00911 5.10817 1.90809 5.61555 2.11013 6.12294L4.33263 16.4735C4.53467 17.5898 5.5449 18.5031 6.75717 18.5031C7.56535 18.5031 9.18171 18.6045 10.495 19.0104C11.1011 19.2134 11.7073 19.6193 12.2124 20.1267L12.9195 20.837L12.5155 21.2429C12.1114 21.6488 12.1114 22.2577 12.5155 22.6636C12.7175 22.8665 13.0206 22.968 13.2226 22.968C13.4247 22.968 13.7277 22.8665 13.9298 22.6636L15.041 21.5473L20.4962 16.0676L21.6075 14.9514C22.1126 14.647 22.1126 13.9366 21.7085 13.6322Z" fill="black"/>
</svg>

<svg xmlns="http://www.w3.org/2000/svg" fill="none" viewBox="0 0 24 25"><path fill="#000" d="M21.709 13.632a.974.974 0 0 0-1.415 0l-.404.406-.707-.812a4.6 4.6 0 0 1-1.111-1.928c-.303-1.217-.505-2.638-.505-3.653-.101-1.218-.91-2.13-2.02-2.435L5.14 3.079c-.505-.203-1.01-.102-1.516.101l.809.812L5.646 5.21 9.99 9.573a.984.984 0 0 1 0 1.42 1.1 1.1 0 0 1-.707.305c-.303 0-.505-.101-.707-.304L4.232 6.63 3.019 5.413 2.211 4.6c-.202.507-.303 1.015-.1 1.522l2.222 10.35c.202 1.117 1.212 2.03 2.424 2.03.808 0 2.425.102 3.738.507.606.203 1.212.61 1.717 1.117l.707.71-.404.406a.984.984 0 0 0 0 1.42c.202.203.506.305.708.305s.505-.102.707-.304l1.111-1.117 5.455-5.48 1.112-1.116c.505-.304.505-1.014.1-1.319"/></svg>
